icons/code-of-conduct-16.svg

<svg width="16" height="16" viewBox="0 0 16 16" fill="none" xmlns="http://www.w3.org/2000/svg">
<path fill-rule="evenodd" clip-rule="evenodd" d="M8.04837 2.2413C9.01247 1.53199 10.127 1.00319 11.3731 1.00001C12.5595 0.996976 13.7494 1.44865 14.6553 2.35462C15.0642 2.76345 15.412 3.21473 15.6507 3.78349C15.8886 4.3506 15.9991 4.98921 15.998 5.75054C15.9978 7.94443 14.4932 10.0049 12.917 11.6125C11.4206 13.1386 9.70424 14.4089 8.66814 15.1757C8.59053 15.2331 8.51674 15.2877 8.44715 15.3394C8.18165 15.5366 7.81835 15.5366 7.55286 15.3394C7.48327 15.2877 7.40948 15.2331 7.33188 15.1757C6.29578 14.4089 4.57937 13.1386 3.083 11.6125C1.50953 10.0077 0.00749413 7.95161 0.00202004 5.762C-0.0341645 4.53448 0.416695 3.29256 1.35463 2.35462C3.1234 0.585855 6.22343 0.537374 8.04837 2.2413ZM6.89504 3.22389C6.08443 4.00472 5.34864 4.89296 4.72858 5.64149C4.54474 5.86343 4.37107 6.07308 4.20864 6.26401C3.95539 6.5617 3.97319 7.00396 4.24956 7.28032C4.59879 7.62956 4.94645 7.97747 5.29204 8.32683C6.15805 9.20228 7.58368 9.24087 8.47722 8.35903C8.74121 8.09851 9.01085 7.83054 9.27916 7.5621C9.97312 6.8678 11.0792 6.86067 11.7529 7.53211C12.1477 7.92554 12.5406 8.31936 12.9197 8.69933C13.015 8.79494 13.1095 8.88967 13.203 8.9833C12.9591 9.31675 12.6875 9.64886 12.3939 9.97756L11.0087 8.69889C10.7043 8.41794 10.2299 8.43692 9.9489 8.74128C9.66795 9.04565 9.68692 9.52014 9.99129 9.8011L11.3476 11.0531C11.023 11.3624 10.6921 11.6589 10.364 11.9403L8.88371 10.5739C8.57934 10.2929 8.10485 10.3119 7.8239 10.6163C7.54294 10.9207 7.56193 11.3951 7.86629 11.6761L9.19125 12.8991C8.75847 13.2381 8.35301 13.5418 8 13.8038C6.95925 13.0313 5.46258 11.8969 4.15407 10.5623C2.61139 8.98891 1.502 7.30589 1.502 5.74999C1.502 5.74197 1.50188 5.73396 1.50162 5.72595C1.47486 4.8915 1.77942 4.05115 2.41529 3.41528C3.57396 2.25662 5.64478 2.19118 6.89504 3.22389ZM14.0074 7.6658C14.32 7.01694 14.498 6.37327 14.498 5.74999L14.498 5.7489C14.4989 5.13546 14.4103 4.70415 14.2675 4.36384C14.1253 4.02504 13.9107 3.7313 13.5947 3.41528C12.9823 2.80291 12.1805 2.49795 11.3769 2.5C10.2852 2.50279 9.2124 3.12718 8.15058 4.10199C7.32826 4.85694 6.59719 5.73874 5.92271 6.55228C5.88011 6.60365 5.83775 6.65475 5.7956 6.70553C5.98337 6.89381 6.17112 7.08258 6.35844 7.27194C6.65928 7.57606 7.1362 7.57502 7.42358 7.2914C7.68507 7.03334 7.95229 6.76779 8.21824 6.5017C9.47559 5.24373 11.5304 5.19265 12.8118 6.46962C13.2075 6.86403 13.6039 7.26138 13.9845 7.64284C13.9921 7.6505 13.9998 7.65815 14.0074 7.6658Z" fill="#24292F"/>
</svg>

<svg xmlns="http://www.w3.org/2000/svg" width="16" height="16" viewBox="0 0 16 16"><path fill-rule="evenodd" d="M8.048 2.241c.964-.709 2.079-1.238 3.325-1.241a4.613 4.613 0 013.282 1.355c.41.408.757.86.996 1.428.238.568.348 1.206.347 1.968 0 2.193-1.505 4.254-3.081 5.862-1.496 1.526-3.213 2.796-4.249 3.563l-.22.163a.75.75 0 01-.895 0l-.221-.163c-1.036-.767-2.753-2.037-4.249-3.563C1.51 10.008.007 7.952.002 5.762a4.614 4.614 0 011.353-3.407C3.123.585 6.223.537 8.048 2.24zm-1.153.983c-.81.78-1.546 1.669-2.166 2.417-.184.222-.358.432-.52.623a.75.75 0 00.04 1.016c.35.35.697.697 1.043 1.047.866.875 2.292.914 3.185.032.264-.26.534-.528.802-.797.694-.694 1.8-.701 2.474-.03L12.92 8.7l.283.284c-.244.334-.515.666-.81.995l-1.384-1.28A.75.75 0 109.99 9.802l1.357 1.252c-.325.31-.656.606-.984.887l-1.48-1.366a.75.75 0 10-1.018 1.102L9.191 12.9c-.433.34-.838.643-1.191.905-1.04-.773-2.537-1.907-3.846-3.242C2.611 8.99 1.502 7.306 1.502 5.75a3.114 3.114 0 01.913-2.335c1.159-1.158 3.23-1.224 4.48-.191zm7.112 4.442c.313-.65.491-1.293.491-1.916v-.001c0-.614-.088-1.045-.23-1.385-.143-.339-.357-.633-.673-.949a3.113 3.113 0 00-2.218-.915c-1.092.003-2.165.627-3.226 1.602-.823.755-1.554 1.637-2.228 2.45l-.127.154.562.566a.756.756 0 001.066.02l.794-.79c1.258-1.258 3.312-1.31 4.594-.032.396.394.792.791 1.173 1.173l.022.023z"/></svg>
